X:5843
T:Scoth(Scotch) Polka. GHW.021
O:england
M:2/4
L:1/8
Q:200
S:George H.Watson,MS,Swanton Abbott,Norfolk,1850-1880
R:Polka
A:Norfolk
K:F
A/B/|c a2 g|f d2 d|cc/d/ cf|agg A/B/|c a2 g|f d2 d|c>c de|gff:|
:B|Ac c>B|Ac c>B|Ac fa|gg/^f/ gB|Ac c>B|Ac c>c|df eg| aff:|
K:Bb
:z2|F>G F>G|Fd d>d|ed cB|dc c2|F>G F>G|Fd d>d|fe dc|cBB:|
